X:126
T:Maid of my Choice is Sweet Kitty Magee, The
R:jig/song air
B:
O:Irish
M:6/8
L:1/8
K:G
"Graceful and with spirit "\
B/A/|\
GAF GEF|GBc d2 B/d/|efe dBG|G>FG/A/ B2 E/F/|
GAF GEF|GBc d2 B/d/|efe dBG|AGG G2||G/A/|
BcB gag|afd e>dB/A/|BAB GFG|E>FG/A/ B2 E/F/|
GAF GEF|G>AB/d/ Hg2 f/g/|efe dBG|AGG G2||
